src/lib/packages/icons/src/assets/filled/file-download.svg

<svg width="24" height="24" viewBox="0 0 24 24" fill="none" xmlns="http://www.w3.org/2000/svg">
<path d="M14.75 6V3.75L19.25 8.25H17C15.42 8.25 14.75 7.58 14.75 6ZM20 9.75V18C20 20 19 21 17 21H8C6 21 5 20 5 18V6C5 4 6 3 8 3H13.25V6C13.25 8.42 14.58 9.75 17 9.75H20ZM13.53 14.47C13.237 14.177 12.762 14.177 12.469 14.47L11.749 15.19V12C11.749 11.586 11.413 11.25 10.999 11.25C10.585 11.25 10.249 11.586 10.249 12V15.189L9.52905 14.469C9.23605 14.176 8.76102 14.176 8.46802 14.469C8.17502 14.762 8.17502 15.237 8.46802 15.53L10.468 17.53C10.537 17.599 10.6199 17.654 10.7119 17.692C10.8039 17.73 10.901 17.75 10.999 17.75C11.097 17.75 11.1939 17.73 11.2859 17.692C11.3779 17.654 11.461 17.599 11.53 17.53L13.53 15.53C13.823 15.238 13.823 14.762 13.53 14.47Z" fill="currentColor"/>
</svg>

<svg xmlns="http://www.w3.org/2000/svg" width="24" height="24" fill="none"><path fill="currentColor" d="M14.75 6V3.75l4.5 4.5H17c-1.58 0-2.25-.67-2.25-2.25ZM20 9.75V18c0 2-1 3-3 3H8c-2 0-3-1-3-3V6c0-2 1-3 3-3h5.25v3c0 2.42 1.33 3.75 3.75 3.75h3Zm-6.47 4.72a.75.75 0 0 0-1.061 0l-.72.72V12a.75.75 0 0 0-1.5 0v3.189l-.72-.72a.75.75 0 0 0-1.061 1.061l2 2a.749.749 0 0 0 .818.162.75.75 0 0 0 .244-.162l2-2a.749.749 0 0 0 0-1.06Z"/></svg>
